build/img/sprite/vk-icon.svg

<svg width="24" height="12" viewBox="0 0 24 12" xmlns="http://www.w3.org/2000/svg">
<path fill-rule="evenodd" clip-rule="evenodd" d="M11.7421 11.9499H13.1769C13.1769 11.9499 13.6102 11.9077 13.8316 11.699C14.0355 11.5069 14.029 11.1469 14.029 11.1469C14.029 11.1469 14.0013 9.45983 14.8942 9.21153C15.7747 8.96642 16.9057 10.8418 18.1045 11.5631C19.0105 12.1088 19.6995 11.9888 19.6995 11.9888L22.9047 11.9499C22.9047 11.9499 24.5812 11.8592 23.7859 10.7039C23.7211 10.6094 23.3227 9.8492 21.4029 8.28726C19.3929 6.65256 19.6623 6.91682 22.0832 4.08912C23.5572 2.36696 24.1471 1.31567 23.9629 0.865026C23.7874 0.436083 22.7029 0.549064 22.7029 0.549064L19.0943 0.568851C19.0943 0.568851 18.8262 0.536936 18.6281 0.64098C18.4344 0.742471 18.3099 0.979921 18.3099 0.979921C18.3099 0.979921 17.7382 2.31271 16.9771 3.44634C15.3705 5.83744 14.7274 5.96446 14.4652 5.81574C13.8542 5.46977 14.0071 4.4255 14.0071 3.68379C14.0071 1.3661 14.4084 0.3997 13.2257 0.149483C12.8339 0.0665034 12.5447 0.011609 11.5411 0.00267268C10.2535 -0.00881685 9.16398 0.00586421 8.54639 0.270762C8.13564 0.446934 7.81883 0.839493 8.01183 0.862472C8.25071 0.890558 8.79037 0.990134 9.07659 1.33163C9.44656 1.7727 9.43345 2.76271 9.43345 2.76271C9.43345 2.76271 9.64611 5.49084 8.93749 5.82978C8.45099 6.06212 7.78387 5.58786 6.35132 3.41825C5.6172 2.30696 5.06297 1.07822 5.06297 1.07822C5.06297 1.07822 4.95664 0.849068 4.76583 0.725875C4.53423 0.577149 4.2116 0.529914 4.2116 0.529914L0.782066 0.549702C0.782066 0.549702 0.267163 0.562468 0.0785356 0.758428C-0.0897 0.933325 0.064698 1.29397 0.064698 1.29397C0.064698 1.29397 2.74918 6.79873 5.78908 9.57281C8.57771 12.1171 11.7421 11.9499 11.7421 11.9499Z" />
</svg>

<svg width="24" height="12" xmlns="http://www.w3.org/2000/svg"><path fill-rule="evenodd" clip-rule="evenodd" d="M11.742 11.95h1.435s.433-.042.655-.251c.204-.192.197-.552.197-.552s-.028-1.687.865-1.935c.88-.246 2.012 1.63 3.21 2.351.907.546 1.596.426 1.596.426l3.205-.04s1.676-.09.88-1.245c-.064-.095-.462-.855-2.382-2.417-2.01-1.634-1.74-1.37.68-4.198 1.474-1.722 2.064-2.773 1.88-3.224-.176-.429-1.26-.316-1.26-.316l-3.609.02s-.268-.032-.466.072c-.194.101-.318.339-.318.339s-.572 1.333-1.333 2.466c-1.607 2.391-2.25 2.518-2.512 2.37-.61-.346-.458-1.39-.458-2.132 0-2.318.401-3.284-.781-3.535-.392-.082-.681-.137-1.685-.146C10.254-.01 9.164.006 8.546.27c-.41.176-.727.568-.534.591.239.029.778.128 1.065.47.37.44.356 1.43.356 1.43s.213 2.729-.496 3.068c-.486.232-1.153-.242-2.586-2.412a19.147 19.147 0 0 1-1.288-2.34S4.957.85 4.766.726C4.534.577 4.212.53 4.212.53L.782.55S.267.562.08.758c-.169.175-.014.536-.014.536S2.75 6.799 5.79 9.573c2.789 2.544 5.953 2.377 5.953 2.377z"/></svg>
